X: 13997
T: Frank Kelly's
R: reel
M: 4/4
K: Ddorian
|:DEFG Ad ~d2|fedc AF {G}}FE|FA~A2 Gc ~c2|AFGF EC CE|
DEFG Ad~d2|fedc AF {G}FE|FA~A2 Gc~c2|1 AEGE D3 C:|2 AEGE D2 de||
|:f2df e2ce|dcAG FDDC|A,DFA d2df|edcA GAce|d2Ad c2Gc|
EGce dcAG|FA ~A2 Gc ~c2|1 AEGE D2 de:|2 AEGE D3 C||

